static/logos/polywork-glyph-color.svg

<svg width="50" height="50" viewBox="0 0 50 50" fill="none" xmlns="http://www.w3.org/2000/svg">
<g clip-path="url(#clip0_1_1588)">
<path d="M17.1875 48.7345V33.797H32.8123V39.9064C32.8083 42.2492 31.8747 44.4947 30.2167 46.1498C28.5586 47.8048 26.3114 48.7345 23.9688 48.7345H17.1875Z" fill="#88CFB0"/>
<path d="M23.9375 50.0002H15.9688V32.5314H34.0311V39.9064C34.027 42.5822 32.9623 45.1472 31.0702 47.0392C29.1781 48.9312 26.6131 49.9961 23.9375 50.0002ZM18.4844 47.4689H23.9375C25.9447 47.4689 27.8698 46.6727 29.2905 45.2548C30.7111 43.837 31.5114 41.9136 31.5156 39.9064V35.0627H18.4844V47.4689Z" fill="#2F2F3A"/>
<path d="M33.1875 33.3758V17.532H48.8125V24.532C48.8145 25.6927 48.5878 26.8422 48.145 27.9152C47.7022 28.9881 47.0523 29.9631 46.2323 30.7845C45.4123 31.6061 44.4384 32.2577 43.3664 32.7022C42.2942 33.1469 41.145 33.3758 39.9844 33.3758H33.1875Z" fill="#F2C94C"/>
<path d="M39.9063 34.6414H31.9219V16.2664H50V24.5322C50 27.2105 48.937 29.7795 47.0447 31.675C45.152 33.5703 42.5847 34.6372 39.9063 34.6414ZM34.4531 32.1102H39.9063C41.9134 32.1061 43.8369 31.3058 45.2547 29.8852C46.6725 28.4644 47.4688 26.5392 47.4688 24.5322V18.7508H34.4531V32.1102Z" fill="#2F2F3A"/>
<path d="M32.7656 17.532H17.2188V33.3758H32.7656V17.532Z" fill="#BD83CE"/>
<path d="M34.0311 34.6414H15.9688V16.2664H34.0311V34.6414ZM18.4061 32.1102H31.4375V18.7508H18.4844L18.4061 32.1102Z" fill="#2F2F3A"/>
<path d="M1.26562 17.1873V10.0937C1.26562 7.7523 2.19574 5.50681 3.85133 3.85122C5.50692 2.19563 7.75239 1.26553 10.0938 1.26553H16.8124V17.1873H1.26562Z" fill="#40BE88"/>
<path d="M18.0781 18.375H0V10.0938C0.00413245 7.41798 1.0689 4.853 2.96095 2.96095C4.853 1.0689 7.41798 0.00413245 10.0938 0H18.0781V18.375ZM2.53125 15.8438H15.625V2.53125H10.0938C8.08805 2.53125 6.1645 3.32802 4.74625 4.74625C3.32802 6.1645 2.53125 8.08805 2.53125 10.0938V15.8438Z" fill="#2F2F3A"/>
<path d="M33.1875 17.1873V1.26553H39.9063C42.2477 1.26553 44.493 2.19563 46.1488 3.85122C47.8042 5.50681 48.7344 7.7523 48.7344 10.0937V17.1873H33.1875Z" fill="#FF7474"/>
<path d="M50 18.375H31.9219V0H39.9063C42.582 0.00413245 45.147 1.0689 47.0391 2.96095C48.9311 4.853 49.9958 7.41798 50 10.0938V18.375ZM34.4531 15.8438H47.4688V10.0938C47.4688 8.08805 46.672 6.1645 45.2538 4.74625C43.8356 3.32802 41.9119 2.53125 39.9063 2.53125H34.4531V15.8438Z" fill="#2F2F3A"/>
<path d="M32.7656 1.26553H17.2188V17.1092H32.7656V1.26553Z" fill="#6776F9"/>
<path d="M34.0311 18.375H15.9688V0H34.0311V18.375ZM18.4061 15.8438H31.4375V2.53125H18.4844L18.4061 15.8438Z" fill="#2F2F3A"/>
<path d="M1.26562 39.9064V33.797H16.8905V48.7345H10.0938C7.75239 48.7345 5.50692 47.8044 3.85133 46.1489C2.19574 44.4933 1.26562 42.2478 1.26562 39.9064Z" fill="#37C2E2"/>
<path d="M18.0781 50.0002H10.0938C7.41798 49.9961 4.853 48.9312 2.96095 47.0392C1.0689 45.1472 0.00413245 42.5822 0 39.9064V32.5314H18.0781V50.0002ZM2.53125 35.0627V39.9064C2.53125 41.9122 3.32802 43.8356 4.74625 45.2539C6.1645 46.6722 8.08805 47.4689 10.0938 47.4689H15.625V35.0627H2.53125Z" fill="#2F2F3A"/>
<path d="M16.8124 17.532H1.26562V33.3758H16.8124V17.532Z" fill="#F2994A"/>
<path d="M18.0781 34.6414H0V16.2664H18.0781V34.6414ZM2.53125 32.1102H15.625V18.7508H2.53125V32.1102Z" fill="#2F2F3A"/>
</g>
<defs>
<clipPath id="clip0_1_1588">
<rect width="50" height="50" fill="white"/>
</clipPath>
</defs>
</svg>

<svg xmlns="http://www.w3.org/2000/svg" width="64" height="64" fill="none" viewBox="0 0 50 50"><g clip-path="url(#a)"><path fill="#88CFB0" d="M17.188 48.734V33.797h15.624v6.11a8.843 8.843 0 0 1-8.843 8.828h-6.782Z"/><path fill="#2F2F3A" d="M23.938 50h-7.97V32.531h18.063v7.375A10.109 10.109 0 0 1 23.938 50Zm-5.454-2.531h5.453a7.578 7.578 0 0 0 7.579-7.563v-4.843H18.484v12.406Z"/><path fill="#F2C94C" d="M33.188 33.376V17.532h15.624v7a8.828 8.828 0 0 1-8.828 8.844h-6.797Z"/><path fill="#2F2F3A" d="M39.906 34.641h-7.984V16.266H50v8.266a10.11 10.11 0 0 1-10.094 10.11Zm-5.453-2.53h5.453a7.578 7.578 0 0 0 7.563-7.579v-5.781H34.453v13.36Z"/><path fill="#BD83CE" d="M32.766 17.532H17.219v15.844h15.547V17.532Z"/><path fill="#2F2F3A" d="M34.031 34.641H15.97V16.266H34.03v18.375Zm-15.625-2.53h13.032V18.75H18.483l-.078 13.36Z"/><path fill="#40BE88" d="M1.266 17.187v-7.093a8.828 8.828 0 0 1 8.828-8.828h6.718v15.921H1.266Z"/><path fill="#2F2F3A" d="M18.078 18.375H0v-8.281A10.11 10.11 0 0 1 10.094 0h7.984v18.375ZM2.531 15.844h13.094V2.53h-5.531a7.563 7.563 0 0 0-7.563 7.563v5.75Z"/><path fill="#FF7474" d="M33.188 17.187V1.266h6.718a8.829 8.829 0 0 1 8.828 8.828v7.093H33.187Z"/><path fill="#2F2F3A" d="M50 18.375H31.922V0h7.984A10.11 10.11 0 0 1 50 10.094v8.281Zm-15.547-2.531H47.47v-5.75a7.563 7.563 0 0 0-7.563-7.563h-5.453v13.313Z"/><path fill="#6776F9" d="M32.766 1.266H17.219v15.843h15.547V1.266Z"/><path fill="#2F2F3A" d="M34.031 18.375H15.97V0H34.03v18.375Zm-15.625-2.531h13.032V2.53H18.483l-.078 13.313Z"/><path fill="#37C2E2" d="M1.266 39.906v-6.109H16.89v14.938h-6.796a8.828 8.828 0 0 1-8.828-8.829Z"/><path fill="#2F2F3A" d="M18.078 50h-7.984A10.11 10.11 0 0 1 0 39.906v-7.375h18.078v17.47ZM2.531 35.063v4.843a7.562 7.562 0 0 0 7.563 7.563h5.531V35.063H2.531Z"/><path fill="#F2994A" d="M16.812 17.532H1.266v15.844h15.546V17.532Z"/><path fill="#2F2F3A" d="M18.078 34.641H0V16.266h18.078v18.375Zm-15.547-2.53h13.094V18.75H2.531v13.36Z"/></g><defs><clipPath id="a"><path fill="#fff" d="M0 0h50v50H0z"/></clipPath></defs></svg>
